assets/icons/standard/customer_lifecycle_analytics.svg

<svg data-name="Layer 1" xmlns="http://www.w3.org/2000/svg" width="100" height="100" viewBox="0 0 100 100"><path d="M57.4,38.4A18.1,18.1,0,1,1,39.3,20.2,18.12,18.12,0,0,1,57.4,38.4ZM32.6,30.2c-1.3,0-2.3,1.3-2.3,3.1,0,1.6.9,3.1,2.3,3.1s2.3-1.3,2.3-3.1C34.7,31.6,33.8,30.2,32.6,30.2Zm13.5,0c-1.3,0-2.3,1.3-2.3,3.1,0,1.6.9,3.1,2.3,3.1s2.3-1.3,2.3-3.1S47.5,30.2,46.1,30.2ZM28,40.7c.5,5.7,4.7,10.6,11.2,10.6A11.28,11.28,0,0,0,50.7,40.7Z" fill="#fff"/><path d="M79.6,45.4A1.37,1.37,0,0,0,78.2,44l-14.6-.1a1.29,1.29,0,0,0-1.4,1.3v2.6a1.37,1.37,0,0,0,1.4,1.4l4.5.1a.89.89,0,0,1,.6,1.5l-20,20.1a1,1,0,0,1-.9-.2L37.1,59.8a1.37,1.37,0,0,0-1.8-.1h0l-.1.1h0l-1.9,1.9a.1.1,0,0,1-.1.1L20.6,74.4a1.39,1.39,0,0,0,0,1.9l1.9,1.9a1.39,1.39,0,0,0,1.9,0L34.8,67.9a1.87,1.87,0,0,1,2.6-.1L47.6,78.1a1.17,1.17,0,0,0,1.9,0L72.7,54.7a.88.88,0,0,1,1.5.6l.1,4.5a1.37,1.37,0,0,0,1.4,1.4h2.6a1.29,1.29,0,0,0,1.4-1.3Z" fill="#fff"/></svg>

<?xml version="1.0"?><svg xmlns="http://www.w3.org/2000/svg" width="100" height="100" viewBox="0 0 100 100"><title></title><path d="m57.4 38.4a18.1 18.1 0 1 1-18.1-18.2 18.1 18.1 0 0 1 18.1 18.2z m-24.8-8.2c-1.3 0-2.3 1.3-2.3 3.1 0 1.6 0.9 3.1 2.3 3.1s2.3-1.3 2.3-3.1c-0.2-1.7-1.1-3.1-2.3-3.1z m13.5 0c-1.3 0-2.3 1.3-2.3 3.1 0 1.6 0.9 3.1 2.3 3.1s2.3-1.3 2.3-3.1-0.9-3.1-2.3-3.1z m-18.1 10.5c0.5 5.7 4.7 10.6 11.2 10.6a11.3 11.3 0 0 0 11.5-10.6z m51.6 4.7a1.4 1.4 0 0 0-1.4-1.4l-14.6-0.1a1.3 1.3 0 0 0-1.4 1.3v2.6a1.4 1.4 0 0 0 1.4 1.4l4.5 0.1a0.9 0.9 0 0 1 0.6 1.5l-20 20.1a1 1 0 0 1-0.9-0.2l-10.7-10.9a1.4 1.4 0 0 0-1.8-0.1l-0.1 0.1-1.9 1.9a0.1 0.1 0 0 1-0.1 0.1l-12.6 12.6a1.4 1.4 0 0 0 0 1.9l1.9 1.9a1.4 1.4 0 0 0 1.9 0l10.4-10.3a1.9 1.9 0 0 1 2.6-0.1l10.2 10.3a1.2 1.2 0 0 0 1.9 0l23.2-23.4a0.9 0.9 0 0 1 1.5 0.6l0.1 4.5a1.4 1.4 0 0 0 1.4 1.4h2.6a1.3 1.3 0 0 0 1.4-1.3z" fill="#fff"></path></svg>
